SVG_Azure_Grouped/Management/Azure Monitor AKS Health.svg

<?xml version="1.0" encoding="UTF-8" standalone="no"?>
<!-- Generated by Microsoft Visio, SVG Export Azure Monitor AKS Health.svg Page-1 -->

<svg
   xmlns:dc="http://purl.org/dc/elements/1.1/"
   xmlns:cc="http://creativecommons.org/ns#"
   xmlns:rdf="http://www.w3.org/1999/02/22-rdf-syntax-ns#"
   xmlns:svg="http://www.w3.org/2000/svg"
   xmlns="http://www.w3.org/2000/svg"
   xmlns:sodipodi="http://sodipodi.sourceforge.net/DTD/sodipodi-0.dtd"
   xmlns:inkscape="http://www.inkscape.org/namespaces/inkscape"
   width="0.7873404in"
   height="0.78736961in"
   viewBox="0 0 56.688577 56.690899"
   xml:space="preserve"
   class="st8"
   version="1.1"
   id="svg104"
   sodipodi:docname="Azure Monitor AKS Health.svg"
   style="font-size:12px;overflow:visible;color-interpolation-filters:sRGB;fill:none;fill-rule:evenodd;stroke-linecap:square;stroke-miterlimit:3"
   inkscape:version="0.92.5 (2060ec1f9f, 2020-04-08)"><metadata
   id="metadata110"><rdf:RDF><cc:Work
       rdf:about=""><dc:format>image/svg+xml</dc:format><dc:type
         rdf:resource="http://purl.org/dc/dcmitype/StillImage" /></cc:Work></rdf:RDF></metadata><defs
   id="defs108" /><sodipodi:namedview
   pagecolor="#ffffff"
   bordercolor="#666666"
   borderopacity="1"
   objecttolerance="10"
   gridtolerance="10"
   guidetolerance="10"
   inkscape:pageopacity="0"
   inkscape:pageshadow="2"
   inkscape:window-width="640"
   inkscape:window-height="480"
   id="namedview106"
   showgrid="false"
   inkscape:zoom="1.7193066"
   inkscape:cx="37.795072"
   inkscape:cy="23.279613"
   inkscape:window-x="0"
   inkscape:window-y="0"
   inkscape:window-maximized="0"
   inkscape:current-layer="svg104" />
	<style
   type="text/css"
   id="style2">
	<![CDATA[
		.st1 {fill:#804998;stroke:none;stroke-linecap:butt;stroke-width:12.24}
		.st2 {fill:#804998;fill-opacity:0.6;stroke:none;stroke-linecap:butt;stroke-width:12.24}
		.st3 {fill:#ffffff;fill-opacity:0.4;stroke:none;stroke-linecap:butt;stroke-width:12.24}
		.st4 {fill:#ffffff;stroke:none;stroke-linecap:butt;stroke-width:12.24}
		.st5 {fill:#7a7a7a;stroke:none;stroke-linecap:butt;stroke-width:12.24}
		.st6 {fill:#0072c6;stroke:none;stroke-linecap:butt;stroke-width:12.24}
		.st7 {fill:#ffffff;fill-opacity:0.2;stroke:none;stroke-linecap:butt;stroke-width:12.24}
		.st8 {fill:none;fill-rule:evenodd;font-size:12px;overflow:visible;stroke-linecap:square;stroke-miterlimit:3}
	]]>
	</style>

	<g
   id="g102"
   transform="translate(-12.24016,-12.2434)">
		<title
   id="title4">Page-1</title>
		<g
   id="group12663-1"
   transform="translate(12.24,-34.0157)">
			<title
   id="title6">Azure Monitor AKS Health.12663</title>
			<g
   id="group12664-2">
				<title
   id="title8">Sheet.12664</title>
				<g
   id="shape12665-3"
   transform="translate(24.4035,-9.21429)">
					<title
   id="title10">Sheet.12665</title>
					<path
   d="M 0,95.64 V 81.31 L 13.3,74 26.61,81.31 v 14.33 l -13.31,7.31 z"
   class="st1"
   id="path12"
   inkscape:connector-curvature="0"
   style="fill:#804998;stroke:none;stroke-width:12.23999977;stroke-linecap:butt" />
				</g>
				<g
   id="shape12666-5"
   transform="translate(24.4046,-9.2166)">
					<title
   id="title15">Sheet.12666</title>
					<path
   d="m 13.3,76.64 10.99,6.04 V 94.27 L 13.3,100.31 2.32,94.27 V 82.68 Z M 13.3,74 0,81.31 v 14.33 l 13.3,7.31 13.31,-7.31 V 81.31 Z"
   class="st2"
   id="path17"
   inkscape:connector-curvature="0"
   style="fill:#804998;fill-opacity:0.6;stroke:none;stroke-width:12.23999977;stroke-linecap:butt" />
				</g>
				<g
   id="shape12667-7"
   transform="translate(26.7222,-11.8552)">
					<title
   id="title20">Sheet.12667</title>
					<path
   d="m 0,96.91 v -11.6 l 10.99,-6.03 10.98,6.03 v 11.6 l -10.98,6.04 z"
   class="st3"
   id="path22"
   inkscape:connector-curvature="0"
   style="fill:#ffffff;fill-opacity:0.4;stroke:none;stroke-width:12.23999977;stroke-linecap:butt" />
				</g>
				<g
   id="shape12668-9"
   transform="translate(0,-9.21429)">
					<title
   id="title25">Sheet.12668</title>
					<path
   d="M 0,95.64 V 81.31 L 13.3,74 26.61,81.31 v 14.33 l -13.31,7.31 z"
   class="st1"
   id="path27"
   inkscape:connector-curvature="0"
   style="fill:#804998;stroke:none;stroke-width:12.23999977;stroke-linecap:butt" />
				</g>
				<g
   id="shape12669-11"
   transform="translate(0,-9.21545)">
					<title
   id="title30">Sheet.12669</title>
					<path
   d="m 13.3,76.64 10.99,6.04 V 94.27 L 13.3,100.31 2.32,94.27 V 82.67 Z M 13.3,74 0,81.31 v 14.33 l 13.3,7.31 13.31,-7.31 V 81.31 Z"
   class="st2"
   id="path32"
   inkscape:connector-curvature="0"
   style="fill:#804998;fill-opacity:0.6;stroke:none;stroke-width:12.23999977;stroke-linecap:butt" />
				</g>
				<g
   id="shape12670-13"
   transform="translate(2.31873,-11.8552)">
					<title
   id="title35">Sheet.12670</title>
					<path
   d="m 0,96.91 v -11.6 l 10.99,-6.03 10.98,6.03 v 11.6 l -10.98,6.04 z"
   class="st3"
   id="path37"
   inkscape:connector-curvature="0"
   style="fill:#ffffff;fill-opacity:0.4;stroke:none;stroke-width:12.23999977;stroke-linecap:butt" />
				</g>
				<g
   id="shape12671-15"
   transform="translate(12.7345,-28.9009)">
					<title
   id="title40">Sheet.12671</title>
					<path
   d="M 0,95.93 V 82.17 l 12.77,-7.01 12.77,7.01 v 13.76 l -12.77,7.02 z"
   class="st1"
   id="path42"
   inkscape:connector-curvature="0"
   style="fill:#804998;stroke:none;stroke-width:12.23999977;stroke-linecap:butt" />
				</g>
				<g
   id="shape12672-17"
   transform="translate(12.7345,-28.9009)">
					<title
   id="title45">Sheet.12672</title>
					<path
   d="m 12.77,77.8 10.45,5.74 V 94.57 L 12.77,100.31 2.32,94.57 V 83.54 Z m 0,-2.64 L 0,82.17 v 13.76 l 12.77,7.02 12.77,-7.02 V 82.17 Z"
   class="st2"
   id="path47"
   inkscape:connector-curvature="0"
   style="fill:#804998;fill-opacity:0.6;stroke:none;stroke-width:12.23999977;stroke-linecap:butt" />
				</g>
				<g
   id="shape12673-19"
   transform="translate(15.0532,-31.5406)">
					<title
   id="title50">Sheet.12673</title>
					<path
   d="M 0,97.21 V 86.18 l 10.45,-5.74 10.46,5.74 v 11.03 l -10.46,5.74 z"
   class="st3"
   id="path52"
   inkscape:connector-curvature="0"
   style="fill:#ffffff;fill-opacity:0.4;stroke:none;stroke-width:12.23999977;stroke-linecap:butt" />
				</g>
				<g
   id="shape12674-21"
   transform="translate(21.3555,-39.3894)">
					<title
   id="title55">Sheet.12674</title>
					<ellipse
   cx="4.1505198"
   cy="98.809196"
   rx="4.1505198"
   ry="4.13943"
   class="st4"
   id="ellipse57"
   style="fill:#ffffff;stroke:none;stroke-width:12.23999977;stroke-linecap:butt" />
				</g>
				<g
   id="shape12675-23"
   transform="translate(8.58509,-19.3108)">
					<title
   id="title60">Sheet.12675</title>
					<ellipse
   cx="4.1505198"
   cy="98.809196"
   rx="4.1505198"
   ry="4.13943"
   class="st4"
   id="ellipse62"
   style="fill:#ffffff;stroke:none;stroke-width:12.23999977;stroke-linecap:butt" />
				</g>
				<g
   id="shape12676-25"
   transform="translate(33.3503,-19.2634)">
					<title
   id="title65">Sheet.12676</title>
					<ellipse
   cx="4.1505198"
   cy="98.809196"
   rx="4.1505198"
   ry="4.13943"
   class="st4"
   id="ellipse67"
   style="fill:#ffffff;stroke:none;stroke-width:12.23999977;stroke-linecap:butt" />
				</g>
				<g
   id="shape12677-27"
   transform="translate(24.7234,-22.9161)">
					<title
   id="title70">Sheet.12677</title>
					<path
   d="m 0,82.92 1.89,-0.98 11.83,20.03 -1.89,0.98 z"
   class="st4"
   id="path72"
   inkscape:connector-curvature="0"
   style="fill:#ffffff;stroke:none;stroke-width:12.23999977;stroke-linecap:butt" />
				</g>
				<g
   id="shape12678-29"
   transform="translate(11.7594,-22.9496)">
					<title
   id="title75">Sheet.12678</title>
					<path
   d="m 0,101.89 12.87,-20 1.84,1.06 -12.87,20 z"
   class="st4"
   id="path77"
   inkscape:connector-curvature="0"
   style="fill:#ffffff;stroke:none;stroke-width:12.23999977;stroke-linecap:butt" />
				</g>
				<g
   id="shape12679-31"
   transform="translate(39.4184)">
					<title
   id="title80">Sheet.12679</title>
					<path
   d="m 0,96.01 h 9.27 v 2.31 H 0 Z m 0,4.63 h 9.27 l -2.31,2.31 H 2.32 Z"
   class="st5"
   id="path82"
   inkscape:connector-curvature="0"
   style="fill:#7a7a7a;stroke:none;stroke-width:12.23999977;stroke-linecap:butt" />
				</g>
				<g
   id="shape12680-33"
   transform="translate(30.2594,-9.65714)">
					<title
   id="title85">Sheet.12680</title>
					<path
   d="m 0,86.46 c 0,4.1 1.47,7.33 4.25,9.34 1.73,1.25 3.04,3.6 4.01,7.15 L 20.75,96.08 V 81.75 L 9.08,75.34 C 3.84,77.04 0,81.44 0,86.46 Z"
   class="st3"
   id="path87"
   inkscape:connector-curvature="0"
   style="fill:#ffffff;fill-opacity:0.4;stroke:none;stroke-width:12.23999977;stroke-linecap:butt" />
				</g>
				<g
   id="shape12681-35"
   transform="translate(31.4188,-9.28598)">
					<title
   id="title90">Sheet.12681</title>
					<path
   d="M 25.27,86.09 C 25.27,80.16 19.4,75.36 12.64,75.36 5.87,75.36 0,80.16 0,86.09 c 0,3.33 1.06,6.44 3.78,8.41 2.56,1.85 3.85,5.37 4.62,8.45 h 8.48 c 0.77,-3.08 2.06,-6.6 4.62,-8.45 2.71,-1.97 3.77,-5.08 3.77,-8.41 z"
   class="st6"
   id="path92"
   inkscape:connector-curvature="0"
   style="fill:#0072c6;stroke:none;stroke-width:12.23999977;stroke-linecap:butt" />
				</g>
				<g
   id="shape12682-37"
   transform="translate(31.4188,-18.5072)">
					<title
   id="title95">Sheet.12682</title>
					<path
   d="M 19.96,86.46 C 17.99,85.28 15.21,84.58 12.64,84.58 5.87,84.58 0,89.38 0,95.31 c 0,2.92 0.82,5.68 2.86,7.64 z"
   class="st7"
   id="path97"
   inkscape:connector-curvature="0"
   style="fill:#ffffff;fill-opacity:0.2;stroke:none;stroke-width:12.23999977;stroke-linecap:butt" />
				</g>
			</g>
		</g>
	</g>
</svg>

<?xml version="1.0" encoding="UTF-8" standalone="no"?>
<!DOCTYPE svg PUBLIC "-//W3C//DTD SVG 1.1//EN" "http://www.w3.org/Graphics/SVG/1.1/DTD/svg11.dtd">
<!-- Generated by Microsoft Visio, SVG Export Azure Monitor AKS Health.svg Page-1 -->
<svg xmlns="http://www.w3.org/2000/svg" xmlns:xlink="http://www.w3.org/1999/xlink" xmlns:ev="http://www.w3.org/2001/xml-events"
		width="1.1274in" height="1.42984in" viewBox="0 0 81.1729 102.949" xml:space="preserve" color-interpolation-filters="sRGB"
		class="st8">
	<style type="text/css">
	<![CDATA[
		.st1 {fill:#804998;stroke:none;stroke-linecap:butt;stroke-width:12.24}
		.st2 {fill:#804998;fill-opacity:0.6;stroke:none;stroke-linecap:butt;stroke-width:12.24}
		.st3 {fill:#ffffff;fill-opacity:0.4;stroke:none;stroke-linecap:butt;stroke-width:12.24}
		.st4 {fill:#ffffff;stroke:none;stroke-linecap:butt;stroke-width:12.24}
		.st5 {fill:#7a7a7a;stroke:none;stroke-linecap:butt;stroke-width:12.24}
		.st6 {fill:#0072c6;stroke:none;stroke-linecap:butt;stroke-width:12.24}
		.st7 {fill:#ffffff;fill-opacity:0.2;stroke:none;stroke-linecap:butt;stroke-width:12.24}
		.st8 {fill:none;fill-rule:evenodd;font-size:12px;overflow:visible;stroke-linecap:square;stroke-miterlimit:3}
	]]>
	</style>

	<g>
		<title>Page-1</title>
		<g id="group12370-1" transform="translate(12.24,-34.0157)">
			<title>Azure Monitor AKS Health.12370</title>
			<g id="group12371-2">
				<title>Sheet.12371</title>
				<g id="shape12372-3" transform="translate(24.4035,-9.21429)">
					<title>Sheet.12372</title>
					<path d="M0 95.64 L0 81.31 L13.3 74 L26.61 81.31 L26.61 95.64 L13.3 102.95 L0 95.64 Z" class="st1"/>
				</g>
				<g id="shape12373-5" transform="translate(24.4046,-9.2166)">
					<title>Sheet.12373</title>
					<path d="M13.3 76.64 L24.29 82.68 L24.29 94.27 L13.3 100.31 L2.32 94.27 L2.32 82.68 L13.3 76.64 ZM13.3 74 L0
								 81.31 L0 95.64 L13.3 102.95 L26.61 95.64 L26.61 81.31 L13.3 74 Z" class="st2"/>
				</g>
				<g id="shape12374-7" transform="translate(26.7222,-11.8552)">
					<title>Sheet.12374</title>
					<path d="M0 96.91 L0 85.31 L10.99 79.28 L21.97 85.31 L21.97 96.91 L10.99 102.95 L0 96.91 Z" class="st3"/>
				</g>
				<g id="shape12375-9" transform="translate(0,-9.21429)">
					<title>Sheet.12375</title>
					<path d="M0 95.64 L0 81.31 L13.3 74 L26.61 81.31 L26.61 95.64 L13.3 102.95 L0 95.64 Z" class="st1"/>
				</g>
				<g id="shape12376-11" transform="translate(2.81775E-13,-9.21545)">
					<title>Sheet.12376</title>
					<path d="M13.3 76.64 L24.29 82.68 L24.29 94.27 L13.3 100.31 L2.32 94.27 L2.32 82.67 L13.3 76.64 ZM13.3 74 L0
								 81.31 L0 95.64 L13.3 102.95 L26.61 95.64 L26.61 81.31 L13.3 74 Z" class="st2"/>
				</g>
				<g id="shape12377-13" transform="translate(2.31873,-11.8552)">
					<title>Sheet.12377</title>
					<path d="M0 96.91 L0 85.31 L10.99 79.28 L21.97 85.31 L21.97 96.91 L10.99 102.95 L0 96.91 Z" class="st3"/>
				</g>
				<g id="shape12378-15" transform="translate(12.7345,-28.9009)">
					<title>Sheet.12378</title>
					<path d="M0 95.93 L0 82.17 L12.77 75.16 L25.54 82.17 L25.54 95.93 L12.77 102.95 L0 95.93 Z" class="st1"/>
				</g>
				<g id="shape12379-17" transform="translate(12.7345,-28.9009)">
					<title>Sheet.12379</title>
					<path d="M12.77 77.8 L23.22 83.54 L23.22 94.57 L12.77 100.31 L2.32 94.57 L2.32 83.54 L12.77 77.8 ZM12.77 75.16
								 L0 82.17 L0 95.93 L12.77 102.95 L25.54 95.93 L25.54 82.17 L12.77 75.16 Z" class="st2"/>
				</g>
				<g id="shape12380-19" transform="translate(15.0532,-31.5406)">
					<title>Sheet.12380</title>
					<path d="M0 97.21 L0 86.18 L10.45 80.44 L20.91 86.18 L20.91 97.21 L10.45 102.95 L0 97.21 Z" class="st3"/>
				</g>
				<g id="shape12381-21" transform="translate(21.3555,-39.3894)">
					<title>Sheet.12381</title>
					<ellipse cx="4.15052" cy="98.8092" rx="4.15052" ry="4.13943" class="st4"/>
				</g>
				<g id="shape12382-23" transform="translate(8.58509,-19.3108)">
					<title>Sheet.12382</title>
					<ellipse cx="4.15052" cy="98.8092" rx="4.15052" ry="4.13943" class="st4"/>
				</g>
				<g id="shape12383-25" transform="translate(33.3503,-19.2634)">
					<title>Sheet.12383</title>
					<ellipse cx="4.15052" cy="98.8092" rx="4.15052" ry="4.13943" class="st4"/>
				</g>
				<g id="shape12384-27" transform="translate(24.7234,-22.9161)">
					<title>Sheet.12384</title>
					<path d="M0 82.92 L1.89 81.94 L13.72 101.97 L11.83 102.95 L0 82.92 Z" class="st4"/>
				</g>
				<g id="shape12385-29" transform="translate(11.7594,-22.9496)">
					<title>Sheet.12385</title>
					<path d="M0 101.89 L12.87 81.89 L14.71 82.95 L1.84 102.95 L0 101.89 Z" class="st4"/>
				</g>
				<g id="shape12386-31" transform="translate(39.4184,7.10543E-14)">
					<title>Sheet.12386</title>
					<path d="M0 96.01 L9.27 96.01 L9.27 98.32 L0 98.32 L0 96.01 ZM0 100.64 L9.27 100.64 L6.96 102.95 L2.32 102.95
								 L0 100.64 Z" class="st5"/>
				</g>
				<g id="shape12387-33" transform="translate(30.2594,-9.65714)">
					<title>Sheet.12387</title>
					<path d="M0 86.46 C0 90.56 1.47 93.79 4.25 95.8 C5.98 97.05 7.29 99.4 8.26 102.95 L20.75 96.08 L20.75 81.75 L9.08
								 75.34 C3.84 77.04 0 81.44 0 86.46 Z" class="st3"/>
				</g>
				<g id="shape12388-35" transform="translate(31.4188,-9.28598)">
					<title>Sheet.12388</title>
					<path d="M25.27 86.09 C25.27 80.16 19.4 75.36 12.64 75.36 C5.87 75.36 0 80.16 0 86.09 C0 89.42 1.06 92.53 3.78
								 94.5 C6.34 96.35 7.63 99.87 8.4 102.95 L16.88 102.95 C17.65 99.87 18.94 96.35 21.5 94.5 C24.21 92.53
								 25.27 89.42 25.27 86.09 Z" class="st6"/>
				</g>
				<g id="shape12389-37" transform="translate(31.4188,-18.5072)">
					<title>Sheet.12389</title>
					<path d="M19.96 86.46 C17.99 85.28 15.21 84.58 12.64 84.58 C5.87 84.58 0 89.38 0 95.31 C0 98.23 0.82 100.99 2.86
								 102.95 L19.96 86.46 Z" class="st7"/>
				</g>
			</g>
		</g>
	</g>
</svg>
